X: 2
T:My Only Jo and Dearie, O
M:C
L:1/8
R:Air
S:Gow - 3rd Repository (1806)
Z:AK/Fiddler's Companion
K:Dm
A2 |\
"Dm"d3e "A7"fed^c | "Dm"d2A2 A3F | "Gm"G3B  "A7"AGFE | "Dm"F2D2 F2A2 |\
"Dm"d3e "A7"fed^c | "Dm"d2A2 A3F | "Gm"G2AB "A7"AGFE | "Dm"F2D2 D2 :|
A2 |\
"Dm"d3e f2d2 | "A7"e3^c A2A2 | "Dm"d3e f2ed | "C"e2c2c2 de |\
"Dm"f3d "A7"fed^c | "Dm"d3e f2F2 | "Gm"G3B "A7"AGFE | "Dm"F2D2 D2 ||
A2 |\
"Dm"d3e f2d2 | "A7"e3^c A2A2 | "Dm"d3e "G7"f2ed | "C"e2c2 "C7"c2f>g |\
"F"a3f "C/e"agfe | "Dm"defg a2F2 | "Gm"G2AB "A7"AGFE | "Dm"F2D2 D2 |]
